X:15
T: Der Mordknecht
N: Q0037
O: Mitteleuropa, Deutschland
N: Keine ueberlieferte Melodie: Komposition mit parodistischer Absicht.
N: Anhaengsel in der zweiten und letzten  Zeile.
R: Ballade, Eifersucht, Mord; parodistisch
M: 4/4
L: 1/4
K: Eb
B | e_d_cB | A_GF
e | f_gfe | _d_cBc | B2z
B | _d_cBA | _G_FE
A | _cBA_G | F2EB | F2E

